!!!COM: Scriabin, Alexander
!!!OTL@@FR: Désir
!!!OTL@@EN: Désir
!!!OPR@@FR: 2 Morceaux
!!!OPR@@EN: 2 Pieces
!!!OPS: 57
!!!ONM: 1
!!!ODT: 1908
!!!AGN: Miniature
**kern	**kern	**dynam
*staff2	*staff1	*staff1/2
*Ipiano	*Ipiano	*
*clefF4	*clefG2	*
*k[]	*k[]	*
*X:	*X:	*
*M12/8	*M12/8	*
=1	=1	=1
*	*^	*
4.c 4.f#X	4b	4.ee	.
.	8a#X	.	.
4.G 4.fn	4.b	8cc#XL	.
.	.	8dd	.
.	.	8dd#XJ	.
4r	4r	8rff	.
.	.	8anL	.
8r	8rc	8a#XJ	.
4r	4rc	8bL	.
.	.	8ddn	.
8r	8rc	8dd#XJ	.
=2	=2	=2	=2
4.cn 4.f#X	4b	4.ee	.
.	8a#X	.	.
4.G 4.fn	4.b	8cc#XL	.
.	.	8ddn	.
.	.	8dd#XJ	.
4r	4r	8rff	.
.	.	8anL	.
8r	8rc	8a#XJ	.
4r	4rc	8bL	.
.	.	8cc#X	.
8r	8rc	8ddnJ	.
!!LO:LB:g=original
=3	=3	=3	=3
4.E-X 4.d-X	4.g 4.an	[4.ff	.
2.A-X 2.c	2.g-X 2.b-X	8ffL]	.
.	.	8dd	.
.	.	8ee-XJ	.
.	.	4.gg-X	.
4.Dn 4.c	4.f#X 4.bn	8ff#XL	.
.	.	8dd#X	.
.	.	8eenJ	.
*	*v	*v	*
=4	=4	=4
.	16qf#XLL	.
.	16qb	.
*^	*	*
[8qGG [8qD\	.	16qeeJJ	.
2.GG] 2.D] [2.c [2.f#X	4b	2.cc 2.ee 2.ccc	.
.	8b-X	.	.
.	4b-	.	.
.	8a	.	.
2.c] 2.f#]	4.g#X	8r	.
.	.	8ddL	.
.	.	8dd#XJ	.
.	4.a	8ff#XL	.
.	.	8dd#	.
.	.	8eeJ	.
=5	=5	=5	=5
[8qGG [8qD\	.	.	.
*	*	*^	*
2.GG] 2.D] [2.c [2.f#X	4bn	2.ryy	2.cc 2.ee 2.ccc	.
.	8b-X	.	.	.
.	4b-	.	.	.
.	8a	.	.	.
4.c] 4.f#]	4.g#X	4r	8rff	.
.	.	.	8eeL	.
.	.	8rf	8ee#XJ	.
*clefG2	*clefG2	*	*	*
4r	4a	[4.ff#	8ff#XL	.
.	.	.	8aa	.
8rc	8dd	.	8aa#XJ	.
*v	*v	*	*	*
!!LO:LB:g=original
=6	=6	=6	=6
4.gn 4.cc#X	4ff#]	4.bb	.
.	8ee#X	.	.
4.d 4.ccn	4.ff#X	8gg#XL	.
.	.	8aan	.
.	.	8aa#XJ	.
4r	4r	8rff	.
.	.	8ddL	.
8r	8r	8dd#XJ	.
4r	4r	8eenL	.
.	.	8ggn	.
8r	8rf	8gg#XJ	.
=7	=7	=7	=7
4.fn 4.b	4ee	4.aan	.
.	8dd#X	.	.
4.c 4.b-X	4.ee	8ff#XL	.
.	.	8ggn	.
.	.	8gg#XJ	.
4r	4r	8rff	.
.	.	8ddnL	.
8r	8r	8dd#XJ	.
4r	4r	8eeL	.
.	.	8ff#	.
8r	8rf	8ggnJ	.
=8	=8	=8	=8
4.A-X 4.g-X	4.cc 4.ddn	[4.bb-X	.
2.d-X 2.f	2.cc-X 2.ee-X	8bb-L]	.
.	.	8ggn	.
.	.	8aa-XJ	.
.	.	4.ccc-X	.
4.Gn 4.f	4.bn 4.een	8bbnL	.
.	.	8gg#X	.
.	.	8aanJ	.
*	*v	*v	*
!!LO:LB:g=original
=9	=9	=9
.	16qbLL	.
.	16qee	.
*^	*	*
[8qC [8qG	.	16qaaJJ	.
2.C] 2.G] [2.f [2.b	4ee	2.ff 2.aa 2.fff	.
.	8ee-X	.	.
.	4ee-	.	.
.	8dd	.	.
2.f] 2.b]	4.cc#X	8r	.
.	.	8ggnL	.
.	.	8gg#XJ	.
.	4.dd	8bbL	.
.	.	8gg#	.
.	.	8aaJ	.
=10	=10	=10	=10
[8qC [8qG	.	.	.
2.C] 2.G] [2.f [2.b	4een	2.ff 2.aa 2.fff	.
.	8ee-X	.	.
.	4ee-	.	.
.	8dd	.	.
2.f] 2.b]	4.cc#X	8r	.
.	.	8ggnL	.
.	.	8gg#XJ	.
.	4.dd	8bbL	.
.	.	8gg#	.
.	.	8aaJ	.
=11	=11	=11	=11
[8qD-X [8qc-X	.	.	.
2.D-] 2.c-] [2.f [2.cc-X	4ee-X	2.ff 2.aa 2.fff	.
.	8ee--	.	.
.	4ee--	.	.
.	8dd-X	.	.
2.f] 2.cc-]	4.dd-	8r	.
.	.	8aaL	.
.	.	8bb-XJ	.
.	4.ff	8eee-XL	.
.	.	8ddd-X	.
.	.	8dddnJ	.
!!LO:LB:g=original
=12	=12	=12	=12
[8qGG-X [8qD-X [8qc-X	.	.	.
*	*	*^	*
2.GG-] 2.D-]	4.c-] 4.f 4.cc-X 4.ff	4bb-X 4bbb-X	4.ddd	.
.	.	8aa 8aaa	.	.
*	*	*8va	*	*
.	4.B-X 4.g-X 4.b-X 4.gg-X	8eee-XL 8eeee-X	4.ggg-X	.
.	.	8eee-- 8eeee--	.	.
.	.	8ddd-XJ 8dddd-X	.	.
*	*	*X8va	*	*
*clefF4	*clefF4	*	*	*
4.ryy	4r	8r	4.ryy	.
.	.	8gg-XL	.	.
.	8r	8ggnJ	.	.
4.ryy	4.D-X 4.c-X 4.f\	4.cc-X	8bb-XL	.
.	.	.	8gg	.
.	.	.	8aa-XJ	.
*v	*v	*	*	*
=13	=13	=13	=13
[8qGGn	.	.	.
4.GG] 4.F 4.Bn 4.f	4.bn 4.ff	8bbnL	.
.	.	8gg#X	.
.	.	8aaJ	.
2.GG 2.F 2.B 2.f	2.b 2.een 2.aa	2.eeen	.
*	*v	*v	*
4.GG 4.F 4.B 4.f	4.b 4.dd#X 4.aa 4.ddd#X	.
=14	=14	=14
1.CC 1.GG 1.F 1.B 1.f	1.b 1.dd#X 1.aa 1.ddd#X 1.aaa	.
==	==	==
*-	*-	*-
!!!filter: flipper -a
!!!system-decoration: {(*)}
!!!ENC: Bryan Jacob Bell
!!!END: November 2021 to April 2022
!!!PED: Günter Philipp
!!!PTL: Ausgewählte Klavierwerke (Edition Peters)
